X: 14562
T: Gan Ainm
R: reel
M: 4/4
K: Adorian
a3g ed cA|d3c de ge|ga ag ed ce|de ge a3e|
a3g ed cA|d3c de ge|ab ag ed ce|dc AG Ac de|
a3g ed cA|d3c de ge|ga ag ed ce|de ge a3e|
a3g ed cA|d3c de ge|ab ag ed ce|dc AG AG ED|
DE EA AG ED|E2 zA2G ED|EA AA BA AA|cA AA dA e2|
EA AA AG ED|DE EA AG ED|EG FA GG GD|e4 dc AG|
EE EA zG ED|EA AE AG ED|EA AA BA AA|cA AA dG B/c/d|
e3d cA d2|dd dA BA GA|AB BB Bc cA|dd dc de ge|
a3g ed cA|d3c de ge|ga ag ed ce|de ge a3e|
a3g ed cA|d3c de ge|ab ag ed ce|dc AG AG ED|
DE EA AG ED|E2 zA2G ED|EA AA BA AA|cA AA dA e2|
EA AA AG ED|DE EA AG ED|EG FA GG GD|e4 dc AG|
EE EA zG ED|EA AE AG ED|EA AA BA AA|cA AA dG B/c/d|
e3d cA d2|dd dA BA GA|AB BB Bc cA|a8|
E3D CA, D2|DD DA, B,A, G,A,|A,B, B,B, B,C CA,|DD DC DE GE|
A3G ED CA,|D3C DE GE|GA AG ED CE|DE GE A3E|
A3G ED CA,|D3C DE GE|AB AG ED CE|DC A,G, A,G, E,D,|
D,E, E,A, A,G, E,D,|E,2 zA,2G, E,D,|E,A, A,A, B,A, A,A,|CA, A,A, DA, E2|
E,A, A,A, A,G, E,D,|D,E, E,A, A,G, E,D,|E,G, F,A, G,G, G,D,|E4 DC A,G,|
E,E, E,A, zG, E,D,|E,A, A,E, A,G, E,D,|E,A, A,A, B,A, A,A,|CA, A,A, DG, B,/C/D|
E3D CA, D2|DD DA, B,A, G,A,|A,B, B,B, B,C CA,|A8|

